!! J.S. Bach "Adagio" from Sonata No. 3, for solo violin, BWV 1005.
!! From 'Neue Ausgabe Saemtlicher Werke' Serie VI: Kammermusikwerke,
!! Band 1 ('Werke fuer Violine') Baerenreiter Kassel (Basel) 1958; p.42
!! This file has been error-checked using the double-entry method.
!! NOTE:  This 'monophonic' work has been recoded here as a four-part work.
!! NOTE:  A considerable degree of latitude has been exercised in the
!!        assignment of parts and voices.
**kern	**kern	**kern	**kern
*M3/4	*M3/4	*M3/4	*M3/4
=1	=1	=1	=1
2.r	{8.c	2.r	2.r
.	16d}	.	.
.	{8.c	.	.
.	16d}	.	.
.	{8.c	.	.
.	16e}	.	.
=2	=2	=2	=2
4c	{8.d	2.r	2.r
.	16e}	.	.
4c	{8.d	.	.
.	16e}	.	.
4c	{8.d	.	.
.	16e}	.	.
=3	=3	=3	=3
4B	4f	2.r	8.dd
.	.	.	16ee
4B	4d	.	8.dd
.	.	.	16ee
4B	4g	.	8.dd
.	.	.	16ff
=4	=4	=4	=4
4B-	4g	4dd	8.ee
.	.	.	16ff
4B-	4g	4dd	8.ee
.	.	.	16ff
4B-	4g	4dd	8.ee
.	.	.	16ff
=5	=5	=5	=5
4A	4e	4cc#	{8gg
.	.	.	8bb-}
4A	4e	4cc#	{8bb-
.	.	.	8aa}
4A	4e	4cc#	{8aa
.	.	.	8gg}
=6	=6	=6	=6
2.r	4d	8.a	4ff
.	.	16b	.
.	4d	8.a	4ff
.	.	16b	.
.	4d	8.a	4ff
.	.	16b	.
=7	=7	=7	=7
2.r	4d	{8cc	4ff#
.	.	8ee-}	.
.	4d	{8ee-	4ff#
.	.	8dd}	.
.	4d	{8dd	4ff#
.	.	8cc}	.
=8	=8	=8	=8
2.r	4d#	4b	{8.ff#
.	.	.	16gg}
.	4d#	4b	{8.ff#
.	.	.	16gg}
.	4d#	4b	{8.ff#
.	.	.	16gg}
=9	=9	=9	=9
2.r	4d#	4cc	{8aa
.	.	.	8ccc}
.	4d#	4a	{8ccc
.	.	.	8bb}
.	4d#	4b	{8bb
.	.	.	8aa}
=10	=10	=10	=10
2.r	4d#	4cc	8.aa
.	.	.	16ff#
.	4e	4cc#	8.gg
.	.	.	16bb-
.	4e-	4ccn	16aa
.	.	.	16gg
.	.	.	16aa
.	.	.	16ff#
=11	=11	=11	=11
2.r	4dn	8b-	8gg
.	.	8cc	8aa
.	2d	2a	4.ff#
.	.	.	8gg
=12	=12	=12	=12
2.r	16.b-	2.r	2.r
.	32a	.	.
.	32g	.	.
.	32f#	.	.
.	16g	.	.
.	[4c#	.	.
.	32c#]	.	.
.	{32d	.	.
.	32e	.	.
.	32f#	.	.
.	32g	.	.
.	32a	.	.
.	64b-	.	.
.	64ccn	.	.
.	32a}	.	.
=13	=13	=13	=13
8.g	8.b-	2.r	2.r
16f#	16a	.	.
8.g	8.b-	.	.
16f#	16a	.	.
4g	{8b-	.	.
.	8ee-}	.	.
=14	=14	=14	=14
4r	{8.dd	2.r	2.r
.	32ee-	.	.
.	32cc}	.	.
2d	{4b-	.	.
.	8.a}	.	.
.	16g	.	.
=15	=15	=15	=15
{8.G	4g	2.r	2.r
16A}	.	.	.
{8.G	4g	.	.
16A}	.	.	.
{8.G	4g	.	.
16B}	.	.	.
=16	=16	=16	=16
4A	{8.g	2.r	4cc
.	16a}	.	.
4A	{8.g	.	4cc
.	16a}	.	.
4A	{8.g	.	4cc
.	16a}	.	.
=17	=17	=17	=17
4A	4f	2.r	{8.cc
.	.	.	16dd}
4A	4f	.	{8.cc
.	.	.	16dd}
4A	4f	.	{8.cc
.	.	.	16ee}
=18	=18	=18	=18
{8.A	4f#	2.r	4dd
16B}	.	.	.
{8.A	4f#	.	4dd
16B}	.	.	.
{8.A	4f#	.	4dd
16c}	.	.	.
=19	=19	=19	=19
4B	4g	2.r	{8.dd
.	.	.	16ee}
4B	4g	.	{8.dd
.	.	.	16ee}
4B	4g	.	{8.dd
.	.	.	16ff}
=20	=20	=20	=20
4c	4g	{8.dd	4ee
.	.	16cc}	.
4c	4g	{8.dd	4ee
.	.	16cc}	.
4c	4g	{8.dd	4ee
.	.	16b}	.
=21	=21	=21	=21
4B-	4g	4cc	{8.ee
.	.	.	16ff}
4B-	4g	4cc	{8.ee
.	.	.	16ff}
4B-	4g	4cc	{8.ee
.	.	.	16gg}
=22	=22	=22	=22
4A	8.a	8.cc	4ff
.	16g	16b	.
4r	8.a	8.cc	4r
.	16g	16b	.
4d	8.a	8.cc	4ff
.	16f	16a	.
=23	=23	=23	=23
4G	8.g	8.b-	4ff
.	16f	16a	.
4r	8.g	8.b-	4r
.	16f	16a	.
4G	4g	4b-	8.ee
.	.	.	16ff
=24	=24	=24	=24
4c#	4e	4a	{8.gg
.	.	.	16ff}
4r	4r	4r	{8.gg
.	.	.	16ff}
4c#	4a	4ee	{8.gg
.	.	.	16ee}
=25	=25	=25	=25
4d	4a	8.dd	8.ff
.	.	16cc#	16ee
2r	2r	8.dd	8.ff
.	.	16cc#	16ee
.	.	8.dd	4ff
.	.	16ccn	.
=26	=26	=26	=26
4G	4d	4b	8.ff
.	.	.	16ee
4G	4d	4b	8.ff
.	.	.	16aa
4G	4d	4b	8.gg
.	.	.	16ff
=27	=27	=27	=27
4c	8.e	8.cc	4ee
.	16d	16b	.
4r	8.e	8.cc	4r
.	16f	16dd	.
4c	4g	8.cc	4ee
.	.	16b-	.
=28	=28	=28	=28
8.f	4r	4a	4ee
16e	.	.	.
8.f	8.r	2r	8.dd
16e	16cc	.	16ee
8.d	8.bn	.	4ff
16c	16a	.	.
=29	=29	=29	=29
4B	4g	4dd	8.ff
.	.	.	16ee
4r	4r	4r	8.ff
.	.	.	16dd
8.c	8.g	8.cc	8.ee
16B	16g	16r	16r
=30	=30	=30	=30
4A	8.f#	2.r	4r
.	16a	.	.
4A	4f#	.	8.cc
.	.	.	16ee
4A	4f#	.	8.dd
.	.	.	16cc
=31	=31	=31	=31
4G	4g	2.r	8.b
.	.	.	16cc
4G	8.fn	.	4dd
.	16e	.	.
4G	8.f	.	4dd
.	16d	.	.
=32	=32	=32	=32
4G	4e	2.r	8.dd
.	.	.	16cc
4G	8.e	.	8.dd
.	16d	.	16b
4G	8.e	.	8.cc
.	16f	.	16dd
=33	=33	=33	=33
4G	4g	4cc	8.ee
.	.	.	16ff#
4G	4a	4cc	8.ff#
.	.	.	16gg
4G	4a	4cc	8.ee
.	.	.	16ff#
=34	=34	=34	=34
4G	4d	4b	4gg
2r	8.ee	2r	[2gg
.	16dd	.	.
.	8.ee	.	.
.	16dd	.	.
=35	=35	=35	=35
2.r	8.cc#	2.r	4gg]
.	16a	.	.
.	8.dd	.	[2ff
.	16ccn	.	.
.	8.dd	.	.
.	16cc	.	.
=36	=36	=36	=36
2.r	8.b	2.r	4ff]
.	16g	.	.
.	8.cc	.	2ee
.	16b-	.	.
.	8.a	.	.
.	16g	.	.
=37	=37	=37	=37
2.r	4f	8.ee	4aa
.	.	16dd	.
.	2r	8.ee	8.r
.	.	16cc	16aa
.	.	8.dd	8.bb
.	.	16ee	16ccc
=38	=38	=38	=38
4.r	2.r	4.b	4.gg
8e	.	8cc	8aa
4d	.	4b	{16gg
.	.	.	8.ff}
=39	=39	=39	=39
8c	8g	8cc	16.ee
.	.	.	32ff
8r	8r	8r	{32gg
.	.	.	32aa
.	.	.	32ff#
.	.	.	32gg}
4r	4g	2r	[8cc
.	.	.	32cc]
.	.	.	32b
.	.	.	32a
.	.	.	32b
4G	4d	.	8.b
.	.	.	16cc
=40	=40	=40	=40
4A-	[4d	2.r	[4cc
4r	16d]	.	16cc]
.	{16e-	.	8.r
.	16f	.	.
.	16g	.	.
4r	16an	.	4r
.	16b	.	.
.	32cc	.	.
.	32dd	.	.
.	32ee-	.	.
.	32b}	.	.
=41	=41	=41	=41
[4An	[4f#	2.r	[4cc
16A]	16f#]	.	16cc]
{16G	8.r	.	8.r
16A	.	.	.
16B	.	.	.
16c	4r	.	4r
16d	.	.	.
16e-	.	.	.
32fn	.	.	.
32g}	.	.	.
=42	=42	=42	=42
[4Bn	[4a-	2.r	[4dd
16B]	16a-]	.	16dd]
8.r	8.r	.	{16ee-
.	.	.	16dd
.	.	.	16cc
4r	4r	.	32b
.	.	.	32an
.	.	.	32g
.	.	.	32f
.	.	.	32e-
.	.	.	32f
.	.	.	16d}
=43	=43	=43	=43
2.r	2.r	8.c	8.e-
.	.	16B	16d
.	.	8.c	8.e-
.	.	16B	16d
.	.	8.c	8.e-
.	.	16d	16bn
=44	=44	=44	=44
2.r	8r	8e-	8cc
.	8A	8f#	16ee-
.	.	.	16dd
.	4G	4g	{4cc
.	4d	4r	8.bT}
.	.	.	16cc
=45	=45	=45	=45
2.r	8c	8en	8cc
.	8e	8r	8r
.	2r	2r	8a
.	.	.	8c
.	.	.	8B
.	.	.	8a
=46	=46	=46	=46
2.r	2.r	2.r	16dd
.	.	.	{16b
.	.	.	16a
.	.	.	16g}
.	.	.	{16A
.	.	.	16g
.	.	.	16cc}
.	.	.	16e
.	.	.	{16f#
.	.	.	16cc
.	.	.	16aa}
.	.	.	16cc
=47	=47	=47	=47
2.r	2.G	2.g	2.b
==	==	==	==
*-	*-	*-	*-
